%
(Header)
(Generated by gcodetools from Inkscape.)
(Using default header. To add your own header create file "header" in the output dir.)
M3
(Header end.)
G21 (All units in mm)

(Start cutting path id: line4186)
(Change tool to Cylindrical cutter)

G00 Z-0.500000
G00 X173.991435 Y40.136860

G01 Z0.800000 F100.0(Penetrate)
G01 X171.607001 Y1.037218 Z0.800000 F400.000000
G00 Z-0.500000

(End cutting path id: line4186)


(Start cutting path id: line4162)
(Change tool to Cylindrical cutter)

G00 Z-0.500000
G00 X173.832465 Y32.493461

G01 Z0.800000 F100.0(Penetrate)
G01 X1.323950 Y40.136860 Z0.800000 F400.000000
G00 Z-0.500000

(End cutting path id: line4162)


(Start cutting path id: line4170)
(Change tool to Cylindrical cutter)

G00 Z-0.500000
G00 X1.323950 Y40.136860

G01 Z0.800000 F100.0(Penetrate)
G01 X4.803440 Y1.037218 Z0.800000 F400.000000
G00 Z-0.500000

(End cutting path id: line4170)


(Start cutting path id: line4168)
(Change tool to Cylindrical cutter)

G00 Z-0.500000
G00 X1.323950 Y40.136860

G01 Z0.800000 F100.0(Penetrate)
G01 X17.131786 Y1.037218 Z0.800000 F400.000000
G00 Z-0.500000

(End cutting path id: line4168)


(Start cutting path id: line4166)
(Change tool to Cylindrical cutter)

G00 Z-0.500000
G00 X1.323950 Y40.136860

G01 Z0.800000 F100.0(Penetrate)
G01 X32.604033 Y1.037218 Z0.800000 F400.000000
G00 Z-0.500000

(End cutting path id: line4166)


(Start cutting path id: line4160)
(Change tool to Cylindrical cutter)

G00 Z-0.500000
G00 X1.323950 Y40.136860

G01 Z0.800000 F100.0(Penetrate)
G01 X173.832465 Y28.407688 Z0.800000 F400.000000
G00 Z-0.500000

(End cutting path id: line4160)


(Start cutting path id: path3786)
(Change tool to Cylindrical cutter)

G00 Z-0.500000
G00 X175.289606 Y39.236602

G00 Z-0.500000

(End cutting path id: path3786)


(Start cutting path id: line4184)
(Change tool to Cylindrical cutter)

G00 Z-0.500000
G00 X173.991435 Y40.136860

G01 Z0.800000 F100.0(Penetrate)
G01 X161.680743 Y1.037218 Z0.800000 F400.000000
G00 Z-0.500000

(End cutting path id: line4184)


(Start cutting path id: line4182)
(Change tool to Cylindrical cutter)

G00 Z-0.500000
G00 X173.991435 Y40.136860

G01 Z0.800000 F100.0(Penetrate)
G01 X137.483261 Y1.037218 Z0.800000 F400.000000
G00 Z-0.500000

(End cutting path id: line4182)


(Start cutting path id: line4110)
(Change tool to Cylindrical cutter)

G00 Z-0.500000
G00 X87.745997 Y1.037218

G01 Z0.800000 F100.0(Penetrate)
G01 X173.991435 Y40.136860 Z0.800000 F400.000000
G00 Z-0.500000

(End cutting path id: line4110)


(Start cutting path id: line4180)
(Change tool to Cylindrical cutter)

G00 Z-0.500000
G00 X173.991435 Y40.136860

G01 Z0.800000 F100.0(Penetrate)
G01 X1.447587 Y16.678419 Z0.800000 F400.000000
G00 Z-0.500000

(End cutting path id: line4180)


(Start cutting path id: line4158)
(Change tool to Cylindrical cutter)

G00 Z-0.500000
G00 X1.323950 Y40.136860

G01 Z0.800000 F100.0(Penetrate)
G01 X173.832465 Y23.536625 Z0.800000 F400.000000
G00 Z-0.500000

(End cutting path id: line4158)


(Start cutting path id: line4178)
(Change tool to Cylindrical cutter)

G00 Z-0.500000
G00 X173.991435 Y40.136860

G01 Z0.800000 F100.0(Penetrate)
G01 X1.323950 Y6.936390 Z0.800000 F400.000000
G00 Z-0.500000

(End cutting path id: line4178)


(Start cutting path id: line4156)
(Change tool to Cylindrical cutter)

G00 Z-0.500000
G00 X1.323950 Y40.136860

G01 Z0.800000 F100.0(Penetrate)
G01 X173.832465 Y16.678419 Z0.800000 F400.000000
G00 Z-0.500000

(End cutting path id: line4156)


(Start cutting path id: line4176)
(Change tool to Cylindrical cutter)

G00 Z-0.500000
G00 X173.991435 Y40.136860

G01 Z0.800000 F100.0(Penetrate)
G01 X29.248179 Y1.037218 Z0.800000 F400.000000
G00 Z-0.500000

(End cutting path id: line4176)


(Start cutting path id: line4154)
(Change tool to Cylindrical cutter)

G00 Z-0.500000
G00 X1.323950 Y40.136860

G01 Z0.800000 F100.0(Penetrate)
G01 X173.832465 Y6.936390 Z0.800000 F400.000000
G00 Z-0.500000

(End cutting path id: line4154)


(Start cutting path id: line4174)
(Change tool to Cylindrical cutter)

G00 Z-0.500000
G00 X173.991435 Y40.136860

G01 Z0.800000 F100.0(Penetrate)
G01 X107.598513 Y1.037218 Z0.800000 F400.000000
G00 Z-0.500000

(End cutting path id: line4174)


(Start cutting path id: line4172)
(Change tool to Cylindrical cutter)

G00 Z-0.500000
G00 X173.991435 Y40.136860

G01 Z0.800000 F100.0(Penetrate)
G01 X69.094520 Y1.037218 Z0.800000 F400.000000
G00 Z-0.500000

(End cutting path id: line4172)


(Start cutting path id: line4152)
(Change tool to Cylindrical cutter)

G00 Z-0.500000
G00 X1.323950 Y40.136860

G01 Z0.800000 F100.0(Penetrate)
G01 X146.314474 Y1.037218 Z0.800000 F400.000000
G00 Z-0.500000

(End cutting path id: line4152)


(Start cutting path id: line4164)
(Change tool to Cylindrical cutter)

G00 Z-0.500000
G00 X173.991435 Y40.136860

G01 Z0.800000 F100.0(Penetrate)
G01 X150.659401 Y1.037218 Z0.800000 F400.000000
G00 Z-0.500000

(End cutting path id: line4164)


(Start cutting path id: line4146)
(Change tool to Cylindrical cutter)

G00 Z-0.500000
G00 X173.991435 Y40.136860

G01 Z0.800000 F100.0(Penetrate)
G01 X1.447587 Y38.694578 Z0.800000 F400.000000
G00 Z-0.500000

(End cutting path id: line4146)


(Start cutting path id: line4150)
(Change tool to Cylindrical cutter)

G00 Z-0.500000
G00 X1.323950 Y40.136860

G01 Z0.800000 F100.0(Penetrate)
G01 X106.468128 Y1.037218 Z0.800000 F400.000000
G00 Z-0.500000

(End cutting path id: line4150)


(Start cutting path id: line4142)
(Change tool to Cylindrical cutter)

G00 Z-0.500000
G00 X173.991435 Y40.136860

G01 Z0.800000 F100.0(Penetrate)
G01 X1.323950 Y37.252309 Z0.800000 F400.000000
G00 Z-0.500000

(End cutting path id: line4142)


(Start cutting path id: line4148)
(Change tool to Cylindrical cutter)

G00 Z-0.500000
G00 X1.323950 Y40.136860

G01 Z0.800000 F100.0(Penetrate)
G01 X67.999447 Y1.037218 Z0.800000 F400.000000
G00 Z-0.500000

(End cutting path id: line4148)


(Start cutting path id: line4144)
(Change tool to Cylindrical cutter)

G00 Z-0.500000
G00 X1.323950 Y40.136860

G01 Z0.800000 F100.0(Penetrate)
G01 X173.832465 Y38.694578 Z0.800000 F400.000000
G00 Z-0.500000

(End cutting path id: line4144)


(Start cutting path id: line4138)
(Change tool to Cylindrical cutter)

G00 Z-0.500000
G00 X173.991435 Y40.136860

G01 Z0.800000 F100.0(Penetrate)
G01 X1.447587 Y34.367786 Z0.800000 F400.000000
G00 Z-0.500000

(End cutting path id: line4138)


(Start cutting path id: line4140)
(Change tool to Cylindrical cutter)

G00 Z-0.500000
G00 X1.323950 Y40.136860

G01 Z0.800000 F100.0(Penetrate)
G01 X173.832465 Y37.252309 Z0.800000 F400.000000
G00 Z-0.500000

(End cutting path id: line4140)


(Start cutting path id: line4134)
(Change tool to Cylindrical cutter)

G00 Z-0.500000
G00 X173.991435 Y40.136860

G01 Z0.800000 F100.0(Penetrate)
G01 X1.447587 Y30.361966 Z0.800000 F400.000000
G00 Z-0.500000

(End cutting path id: line4134)


(Start cutting path id: line4136)
(Change tool to Cylindrical cutter)

G00 Z-0.500000
G00 X1.323950 Y40.136860

G01 Z0.800000 F100.0(Penetrate)
G01 X173.991435 Y34.367786 Z0.800000 F400.000000
G00 Z-0.500000

(End cutting path id: line4136)


(Start cutting path id: line4130)
(Change tool to Cylindrical cutter)

G00 Z-0.500000
G00 X173.991435 Y40.136860

G01 Z0.800000 F100.0(Penetrate)
G01 X1.447587 Y26.147497 Z0.800000 F400.000000
G00 Z-0.500000

(End cutting path id: line4130)


(Start cutting path id: line4132)
(Change tool to Cylindrical cutter)

G00 Z-0.500000
G00 X1.323950 Y40.136860

G01 Z0.800000 F100.0(Penetrate)
G01 X173.832465 Y30.361966 Z0.800000 F400.000000
G00 Z-0.500000

(End cutting path id: line4132)


(Start cutting path id: line4126)
(Change tool to Cylindrical cutter)

G00 Z-0.500000
G00 X173.991435 Y40.136860

G01 Z0.800000 F100.0(Penetrate)
G01 X1.447587 Y20.587030 Z0.800000 F400.000000
G00 Z-0.500000

(End cutting path id: line4126)


(Start cutting path id: line4128)
(Change tool to Cylindrical cutter)

G00 Z-0.500000
G00 X1.323950 Y40.136860

G01 Z0.800000 F100.0(Penetrate)
G01 X173.832465 Y26.147497 Z0.800000 F400.000000
G00 Z-0.500000

(End cutting path id: line4128)


(Start cutting path id: line4122)
(Change tool to Cylindrical cutter)

G00 Z-0.500000
G00 X173.991435 Y40.136860

G01 Z0.800000 F100.0(Penetrate)
G01 X1.323950 Y12.158108 Z0.800000 F400.000000
G00 Z-0.500000

(End cutting path id: line4122)


(Start cutting path id: line4124)
(Change tool to Cylindrical cutter)

G00 Z-0.500000
G00 X1.323950 Y40.136860

G01 Z0.800000 F100.0(Penetrate)
G01 X173.832465 Y20.587030 Z0.800000 F400.000000
G00 Z-0.500000

(End cutting path id: line4124)


(Start cutting path id: line4116)
(Change tool to Cylindrical cutter)

G00 Z-0.500000
G00 X173.991435 Y40.136860

G01 Z0.800000 F100.0(Penetrate)
G01 X124.236484 Y1.037218 Z0.800000 F400.000000
G00 Z-0.500000

(End cutting path id: line4116)


(Start cutting path id: line4112)
(Change tool to Cylindrical cutter)

G00 Z-0.500000
G00 X173.991435 Y40.136860

G01 Z0.800000 F100.0(Penetrate)
G01 X50.231094 Y1.037218 Z0.800000 F400.000000
G00 Z-0.500000

(End cutting path id: line4112)


(Start cutting path id: line4120)
(Change tool to Cylindrical cutter)

G00 Z-0.500000
G00 X1.323950 Y40.136860

G01 Z0.800000 F100.0(Penetrate)
G01 X173.991435 Y12.158108 Z0.800000 F400.000000
G00 Z-0.500000

(End cutting path id: line4120)


(Start cutting path id: line4106)
(Change tool to Cylindrical cutter)

G00 Z-0.500000
G00 X173.991435 Y40.136860

G01 Z0.800000 F100.0(Penetrate)
G01 X1.447587 Y1.037218 Z0.800000 F400.000000
G00 Z-0.500000

(End cutting path id: line4106)


(Start cutting path id: line4118)
(Change tool to Cylindrical cutter)

G00 Z-0.500000
G00 X1.323950 Y40.136860

G01 Z0.800000 F100.0(Penetrate)
G01 X50.231094 Y1.037218 Z0.800000 F400.000000
G00 Z-0.500000

(End cutting path id: line4118)


(Start cutting path id: line4114)
(Change tool to Cylindrical cutter)

G00 Z-0.500000
G00 X1.323950 Y40.136860

G01 Z0.800000 F100.0(Penetrate)
G01 X124.236484 Y1.037218 Z0.800000 F400.000000
G00 Z-0.500000

(End cutting path id: line4114)


(Start cutting path id: line4108)
(Change tool to Cylindrical cutter)

G00 Z-0.500000
G00 X1.323950 Y40.136860

G01 Z0.800000 F100.0(Penetrate)
G01 X87.745997 Y1.037218 Z0.800000 F400.000000
G00 Z-0.500000

(End cutting path id: line4108)


(Start cutting path id: line4104)
(Change tool to Cylindrical cutter)

G00 Z-0.500000
G00 X1.323950 Y40.136860

G01 Z0.800000 F100.0(Penetrate)
G01 X173.832465 Y1.037218 Z0.800000 F400.000000
G00 Z-0.500000

(End cutting path id: line4104)


(Start cutting path id: line4102)
(Change tool to Cylindrical cutter)

G00 Z-0.500000
G00 X173.832465 Y173.605190

G01 Z0.800000 F100.0(Penetrate)
G01 X173.832465 Y1.037218 Z0.800000 F400.000000
G00 Z-0.500000

(End cutting path id: line4102)


(Start cutting path id: line4100)
(Change tool to Cylindrical cutter)

G00 Z-0.500000
G00 X172.737392 Y173.605190

G01 Z0.800000 F100.0(Penetrate)
G01 X172.737392 Y1.037218 Z0.800000 F400.000000
G00 Z-0.500000

(End cutting path id: line4100)


(Start cutting path id: line4098)
(Change tool to Cylindrical cutter)

G00 Z-0.500000
G00 X171.607001 Y173.605190

G01 Z0.800000 F100.0(Penetrate)
G01 X171.607001 Y1.037218 Z0.800000 F400.000000
G00 Z-0.500000

(End cutting path id: line4098)


(Start cutting path id: line4096)
(Change tool to Cylindrical cutter)

G00 Z-0.500000
G00 X170.476611 Y173.605190

G01 Z0.800000 F100.0(Penetrate)
G01 X170.476611 Y1.037218 Z0.800000 F400.000000
G00 Z-0.500000

(End cutting path id: line4096)


(Start cutting path id: line4094)
(Change tool to Cylindrical cutter)

G00 Z-0.500000
G00 X169.381524 Y173.605190

G01 Z0.800000 F100.0(Penetrate)
G01 X169.381524 Y1.037218 Z0.800000 F400.000000
G00 Z-0.500000

(End cutting path id: line4094)


(Start cutting path id: line3788)
(Change tool to Cylindrical cutter)

G00 Z-0.500000
G00 X1.323950 Y40.136860

G01 Z0.800000 F100.0(Penetrate)
G01 X173.991435 Y40.136860 Z0.800000 F400.000000
G00 Z-0.500000

(End cutting path id: line3788)


(Start cutting path id: line4092)
(Change tool to Cylindrical cutter)

G00 Z-0.500000
G00 X168.251133 Y173.605190

G01 Z0.800000 F100.0(Penetrate)
G01 X168.251133 Y1.037218 Z0.800000 F400.000000
G00 Z-0.500000

(End cutting path id: line4092)


(Start cutting path id: line4090)
(Change tool to Cylindrical cutter)

G00 Z-0.500000
G00 X167.156075 Y173.605190

G01 Z0.800000 F100.0(Penetrate)
G01 X167.156075 Y1.037218 Z0.800000 F400.000000
G00 Z-0.500000

(End cutting path id: line4090)


(Start cutting path id: line4088)
(Change tool to Cylindrical cutter)

G00 Z-0.500000
G00 X166.025698 Y173.605190

G01 Z0.800000 F100.0(Penetrate)
G01 X166.025698 Y1.037218 Z0.800000 F400.000000
G00 Z-0.500000

(End cutting path id: line4088)


(Start cutting path id: line4086)
(Change tool to Cylindrical cutter)

G00 Z-0.500000
G00 X164.930611 Y173.605190

G01 Z0.800000 F100.0(Penetrate)
G01 X164.930611 Y1.037218 Z0.800000 F400.000000
G00 Z-0.500000

(End cutting path id: line4086)


(Start cutting path id: line4084)
(Change tool to Cylindrical cutter)

G00 Z-0.500000
G00 X163.800221 Y173.605190

G01 Z0.800000 F100.0(Penetrate)
G01 X163.800221 Y1.037218 Z0.800000 F400.000000
G00 Z-0.500000

(End cutting path id: line4084)


(Start cutting path id: line4082)
(Change tool to Cylindrical cutter)

G00 Z-0.500000
G00 X162.705151 Y173.605190

G01 Z0.800000 F100.0(Penetrate)
G01 X162.705151 Y1.037218 Z0.800000 F400.000000
G00 Z-0.500000

(End cutting path id: line4082)


(Start cutting path id: line4080)
(Change tool to Cylindrical cutter)

G00 Z-0.500000
G00 X161.680743 Y173.605190

G01 Z0.800000 F100.0(Penetrate)
G01 X161.680743 Y1.037218 Z0.800000 F400.000000
G00 Z-0.500000

(End cutting path id: line4080)


(Start cutting path id: line4078)
(Change tool to Cylindrical cutter)

G00 Z-0.500000
G00 X160.585673 Y173.605190

G01 Z0.800000 F100.0(Penetrate)
G01 X160.585673 Y1.037218 Z0.800000 F400.000000
G00 Z-0.500000

(End cutting path id: line4078)


(Start cutting path id: line4076)
(Change tool to Cylindrical cutter)

G00 Z-0.500000
G00 X159.455280 Y173.605190

G01 Z0.800000 F100.0(Penetrate)
G01 X159.455280 Y1.037218 Z0.800000 F400.000000
G00 Z-0.500000

(End cutting path id: line4076)


(Start cutting path id: line4074)
(Change tool to Cylindrical cutter)

G00 Z-0.500000
G00 X158.360224 Y173.605190

G01 Z0.800000 F100.0(Penetrate)
G01 X158.360224 Y1.037218 Z0.800000 F400.000000
G00 Z-0.500000

(End cutting path id: line4074)


(Start cutting path id: line3916)
(Change tool to Cylindrical cutter)

G00 Z-0.500000
G00 X157.335788 Y173.605190

G01 Z0.800000 F100.0(Penetrate)
G01 X157.335788 Y1.037218 Z0.800000 F400.000000
G00 Z-0.500000

(End cutting path id: line3916)


(Start cutting path id: line3914)
(Change tool to Cylindrical cutter)

G00 Z-0.500000
G00 X156.240718 Y173.605190

G01 Z0.800000 F100.0(Penetrate)
G01 X156.240718 Y1.037218 Z0.800000 F400.000000
G00 Z-0.500000

(End cutting path id: line3914)


(Start cutting path id: line3912)
(Change tool to Cylindrical cutter)

G00 Z-0.500000
G00 X155.110328 Y173.605190

G01 Z0.800000 F100.0(Penetrate)
G01 X155.110328 Y1.037218 Z0.800000 F400.000000
G00 Z-0.500000

(End cutting path id: line3912)


(Start cutting path id: line3910)
(Change tool to Cylindrical cutter)

G00 Z-0.500000
G00 X154.015269 Y173.605190

G01 Z0.800000 F100.0(Penetrate)
G01 X154.015269 Y1.037218 Z0.800000 F400.000000
G00 Z-0.500000

(End cutting path id: line3910)


(Start cutting path id: line3908)
(Change tool to Cylindrical cutter)

G00 Z-0.500000
G00 X152.884878 Y173.605190

G01 Z0.800000 F100.0(Penetrate)
G01 X152.884878 Y1.037218 Z0.800000 F400.000000
G00 Z-0.500000

(End cutting path id: line3908)


(Start cutting path id: line3906)
(Change tool to Cylindrical cutter)

G00 Z-0.500000
G00 X151.789791 Y173.605190

G01 Z0.800000 F100.0(Penetrate)
G01 X151.789791 Y1.037218 Z0.800000 F400.000000
G00 Z-0.500000

(End cutting path id: line3906)


(Start cutting path id: line3904)
(Change tool to Cylindrical cutter)

G00 Z-0.500000
G00 X150.659401 Y173.605190

G01 Z0.800000 F100.0(Penetrate)
G01 X150.659401 Y1.037218 Z0.800000 F400.000000
G00 Z-0.500000

(End cutting path id: line3904)


(Start cutting path id: line3902)
(Change tool to Cylindrical cutter)

G00 Z-0.500000
G00 X149.564342 Y173.605190

G01 Z0.800000 F100.0(Penetrate)
G01 X149.564342 Y1.037218 Z0.800000 F400.000000
G00 Z-0.500000

(End cutting path id: line3902)


(Start cutting path id: line3900)
(Change tool to Cylindrical cutter)

G00 Z-0.500000
G00 X148.539937 Y173.605190

G01 Z0.800000 F100.0(Penetrate)
G01 X148.539937 Y1.037218 Z0.800000 F400.000000
G00 Z-0.500000

(End cutting path id: line3900)


(Start cutting path id: line3898)
(Change tool to Cylindrical cutter)

G00 Z-0.500000
G00 X147.444850 Y173.605190

G01 Z0.800000 F100.0(Penetrate)
G01 X147.444850 Y1.037218 Z0.800000 F400.000000
G00 Z-0.500000

(End cutting path id: line3898)


(Start cutting path id: line3896)
(Change tool to Cylindrical cutter)

G00 Z-0.500000
G00 X146.314474 Y173.605190

G01 Z0.800000 F100.0(Penetrate)
G01 X146.314474 Y1.037218 Z0.800000 F400.000000
G00 Z-0.500000

(End cutting path id: line3896)


(Start cutting path id: line3894)
(Change tool to Cylindrical cutter)

G00 Z-0.500000
G00 X145.219401 Y173.605190

G01 Z0.800000 F100.0(Penetrate)
G01 X145.219401 Y1.037218 Z0.800000 F400.000000
G00 Z-0.500000

(End cutting path id: line3894)


(Start cutting path id: line3892)
(Change tool to Cylindrical cutter)

G00 Z-0.500000
G00 X144.088997 Y173.605190

G01 Z0.800000 F100.0(Penetrate)
G01 X144.088997 Y1.037218 Z0.800000 F400.000000
G00 Z-0.500000

(End cutting path id: line3892)


(Start cutting path id: line3890)
(Change tool to Cylindrical cutter)

G00 Z-0.500000
G00 X142.993926 Y173.605190

G01 Z0.800000 F100.0(Penetrate)
G01 X142.993926 Y1.037218 Z0.800000 F400.000000
G00 Z-0.500000

(End cutting path id: line3890)


(Start cutting path id: line3888)
(Change tool to Cylindrical cutter)

G00 Z-0.500000
G00 X141.863547 Y173.605190

G01 Z0.800000 F100.0(Penetrate)
G01 X141.863547 Y1.037218 Z0.800000 F400.000000
G00 Z-0.500000

(End cutting path id: line3888)


(Start cutting path id: line3886)
(Change tool to Cylindrical cutter)

G00 Z-0.500000
G00 X140.768477 Y173.605190

G01 Z0.800000 F100.0(Penetrate)
G01 X140.768477 Y1.037218 Z0.800000 F400.000000
G00 Z-0.500000

(End cutting path id: line3886)


(Start cutting path id: line3884)
(Change tool to Cylindrical cutter)

G00 Z-0.500000
G00 X139.708738 Y173.605190

G01 Z0.800000 F100.0(Penetrate)
G01 X139.708738 Y1.037218 Z0.800000 F400.000000
G00 Z-0.500000

(End cutting path id: line3884)


(Start cutting path id: line3882)
(Change tool to Cylindrical cutter)

G00 Z-0.500000
G00 X138.613665 Y173.605190

G01 Z0.800000 F100.0(Penetrate)
G01 X138.613665 Y1.037218 Z0.800000 F400.000000
G00 Z-0.500000

(End cutting path id: line3882)


(Start cutting path id: line3880)
(Change tool to Cylindrical cutter)

G00 Z-0.500000
G00 X137.483261 Y173.605190

G01 Z0.800000 F100.0(Penetrate)
G01 X137.483261 Y1.037218 Z0.800000 F400.000000
G00 Z-0.500000

(End cutting path id: line3880)


(Start cutting path id: line3878)
(Change tool to Cylindrical cutter)

G00 Z-0.500000
G00 X136.388202 Y173.605190

G01 Z0.800000 F100.0(Penetrate)
G01 X136.388202 Y1.037218 Z0.800000 F400.000000
G00 Z-0.500000

(End cutting path id: line3878)


(Start cutting path id: line3876)
(Change tool to Cylindrical cutter)

G00 Z-0.500000
G00 X135.257812 Y173.605190

G01 Z0.800000 F100.0(Penetrate)
G01 X135.257812 Y1.037218 Z0.800000 F400.000000
G00 Z-0.500000

(End cutting path id: line3876)


(Start cutting path id: line3874)
(Change tool to Cylindrical cutter)

G00 Z-0.500000
G00 X134.162753 Y173.605190

G01 Z0.800000 F100.0(Penetrate)
G01 X134.162753 Y1.037218 Z0.800000 F400.000000
G00 Z-0.500000

(End cutting path id: line3874)


(Start cutting path id: line3872)
(Change tool to Cylindrical cutter)

G00 Z-0.500000
G00 X133.032362 Y173.605190

G01 Z0.800000 F100.0(Penetrate)
G01 X133.032362 Y1.037218 Z0.800000 F400.000000
G00 Z-0.500000

(End cutting path id: line3872)


(Start cutting path id: line3870)
(Change tool to Cylindrical cutter)

G00 Z-0.500000
G00 X131.937292 Y173.605190

G01 Z0.800000 F100.0(Penetrate)
G01 X131.937292 Y1.037218 Z0.800000 F400.000000
G00 Z-0.500000

(End cutting path id: line3870)


(Start cutting path id: line3868)
(Change tool to Cylindrical cutter)

G00 Z-0.500000
G00 X130.912857 Y173.605190

G01 Z0.800000 F100.0(Penetrate)
G01 X130.912857 Y1.037218 Z0.800000 F400.000000
G00 Z-0.500000

(End cutting path id: line3868)


(Start cutting path id: line3866)
(Change tool to Cylindrical cutter)

G00 Z-0.500000
G00 X129.817801 Y173.605190

G01 Z0.800000 F100.0(Penetrate)
G01 X129.817801 Y1.037218 Z0.800000 F400.000000
G00 Z-0.500000

(End cutting path id: line3866)


(Start cutting path id: line3864)
(Change tool to Cylindrical cutter)

G00 Z-0.500000
G00 X128.687407 Y173.605190

G01 Z0.800000 F100.0(Penetrate)
G01 X128.687407 Y1.037218 Z0.800000 F400.000000
G00 Z-0.500000

(End cutting path id: line3864)


(Start cutting path id: line3862)
(Change tool to Cylindrical cutter)

G00 Z-0.500000
G00 X127.592337 Y173.605190

G01 Z0.800000 F100.0(Penetrate)
G01 X127.592337 Y1.037218 Z0.800000 F400.000000
G00 Z-0.500000

(End cutting path id: line3862)


(Start cutting path id: line3860)
(Change tool to Cylindrical cutter)

G00 Z-0.500000
G00 X126.461947 Y173.605190

G01 Z0.800000 F100.0(Penetrate)
G01 X126.461947 Y1.037218 Z0.800000 F400.000000
G00 Z-0.500000

(End cutting path id: line3860)


(Start cutting path id: line3858)
(Change tool to Cylindrical cutter)

G00 Z-0.500000
G00 X125.366874 Y173.605190

G01 Z0.800000 F100.0(Penetrate)
G01 X125.366874 Y1.037218 Z0.800000 F400.000000
G00 Z-0.500000

(End cutting path id: line3858)


(Start cutting path id: line3856)
(Change tool to Cylindrical cutter)

G00 Z-0.500000
G00 X124.236484 Y173.605190

G01 Z0.800000 F100.0(Penetrate)
G01 X124.236484 Y1.037218 Z0.800000 F400.000000
G00 Z-0.500000

(End cutting path id: line3856)


(Start cutting path id: line3854)
(Change tool to Cylindrical cutter)

G00 Z-0.500000
G00 X123.141425 Y173.605190

G01 Z0.800000 F100.0(Penetrate)
G01 X123.141425 Y1.037218 Z0.800000 F400.000000
G00 Z-0.500000

(End cutting path id: line3854)


(Start cutting path id: line3852)
(Change tool to Cylindrical cutter)

G00 Z-0.500000
G00 X121.940369 Y173.605190

G01 Z0.800000 F100.0(Penetrate)
G01 X121.940369 Y1.037218 Z0.800000 F400.000000
G00 Z-0.500000

(End cutting path id: line3852)


(Start cutting path id: line3850)
(Change tool to Cylindrical cutter)

G00 Z-0.500000
G00 X120.845310 Y173.605190

G01 Z0.800000 F100.0(Penetrate)
G01 X120.845310 Y1.037218 Z0.800000 F400.000000
G00 Z-0.500000

(End cutting path id: line3850)


(Start cutting path id: line3848)
(Change tool to Cylindrical cutter)

G00 Z-0.500000
G00 X119.714919 Y173.605190

G01 Z0.800000 F100.0(Penetrate)
G01 X119.714919 Y1.037218 Z0.800000 F400.000000
G00 Z-0.500000

(End cutting path id: line3848)


(Start cutting path id: line3846)
(Change tool to Cylindrical cutter)

G00 Z-0.500000
G00 X118.619846 Y173.605190

G01 Z0.800000 F100.0(Penetrate)
G01 X118.619846 Y1.037218 Z0.800000 F400.000000
G00 Z-0.500000

(End cutting path id: line3846)


(Start cutting path id: line3844)
(Change tool to Cylindrical cutter)

G00 Z-0.500000
G00 X117.489456 Y173.605190

G01 Z0.800000 F100.0(Penetrate)
G01 X117.489456 Y1.037218 Z0.800000 F400.000000
G00 Z-0.500000

(End cutting path id: line3844)


(Start cutting path id: line3842)
(Change tool to Cylindrical cutter)

G00 Z-0.500000
G00 X116.394383 Y173.605190

G01 Z0.800000 F100.0(Penetrate)
G01 X116.394383 Y1.037218 Z0.800000 F400.000000
G00 Z-0.500000

(End cutting path id: line3842)


(Start cutting path id: line3840)
(Change tool to Cylindrical cutter)

G00 Z-0.500000
G00 X115.264001 Y173.605190

G01 Z0.800000 F100.0(Penetrate)
G01 X115.264001 Y1.037218 Z0.800000 F400.000000
G00 Z-0.500000

(End cutting path id: line3840)


(Start cutting path id: line3838)
(Change tool to Cylindrical cutter)

G00 Z-0.500000
G00 X114.168923 Y173.605190

G01 Z0.800000 F100.0(Penetrate)
G01 X114.168923 Y1.037218 Z0.800000 F400.000000
G00 Z-0.500000

(End cutting path id: line3838)


(Start cutting path id: line3836)
(Change tool to Cylindrical cutter)

G00 Z-0.500000
G00 X113.144501 Y173.605190

G01 Z0.800000 F100.0(Penetrate)
G01 X113.144501 Y1.037218 Z0.800000 F400.000000
G00 Z-0.500000

(End cutting path id: line3836)


(Start cutting path id: line3834)
(Change tool to Cylindrical cutter)

G00 Z-0.500000
G00 X112.049436 Y173.605190

G01 Z0.800000 F100.0(Penetrate)
G01 X112.049436 Y1.037218 Z0.800000 F400.000000
G00 Z-0.500000

(End cutting path id: line3834)


(Start cutting path id: line3832)
(Change tool to Cylindrical cutter)

G00 Z-0.500000
G00 X110.919052 Y173.605190

G01 Z0.800000 F100.0(Penetrate)
G01 X110.919052 Y1.037218 Z0.800000 F400.000000
G00 Z-0.500000

(End cutting path id: line3832)


(Start cutting path id: line3830)
(Change tool to Cylindrical cutter)

G00 Z-0.500000
G00 X109.823973 Y173.605190

G01 Z0.800000 F100.0(Penetrate)
G01 X109.823973 Y1.037218 Z0.800000 F400.000000
G00 Z-0.500000

(End cutting path id: line3830)


(Start cutting path id: line3828)
(Change tool to Cylindrical cutter)

G00 Z-0.500000
G00 X108.693591 Y173.605190

G01 Z0.800000 F100.0(Penetrate)
G01 X108.693591 Y1.037218 Z0.800000 F400.000000
G00 Z-0.500000

(End cutting path id: line3828)


(Start cutting path id: line3826)
(Change tool to Cylindrical cutter)

G00 Z-0.500000
G00 X107.598513 Y173.605190

G01 Z0.800000 F100.0(Penetrate)
G01 X107.598513 Y1.037218 Z0.800000 F400.000000
G00 Z-0.500000

(End cutting path id: line3826)


(Start cutting path id: line3824)
(Change tool to Cylindrical cutter)

G00 Z-0.500000
G00 X106.468128 Y173.605190

G01 Z0.800000 F100.0(Penetrate)
G01 X106.468128 Y1.037218 Z0.800000 F400.000000
G00 Z-0.500000

(End cutting path id: line3824)


(Start cutting path id: line3822)
(Change tool to Cylindrical cutter)

G00 Z-0.500000
G00 X105.373063 Y173.605190

G01 Z0.800000 F100.0(Penetrate)
G01 X105.373063 Y1.037218 Z0.800000 F400.000000
G00 Z-0.500000

(End cutting path id: line3822)


(Start cutting path id: line3820)
(Change tool to Cylindrical cutter)

G00 Z-0.500000
G00 X104.313316 Y173.605190

G01 Z0.800000 F100.0(Penetrate)
G01 X104.313316 Y1.037218 Z0.800000 F400.000000
G00 Z-0.500000

(End cutting path id: line3820)


(Start cutting path id: line3818)
(Change tool to Cylindrical cutter)

G00 Z-0.500000
G00 X103.218246 Y173.605190

G01 Z0.800000 F100.0(Penetrate)
G01 X103.218246 Y1.037218 Z0.800000 F400.000000
G00 Z-0.500000

(End cutting path id: line3818)


(Start cutting path id: line3816)
(Change tool to Cylindrical cutter)

G00 Z-0.500000
G00 X102.087861 Y173.605190

G01 Z0.800000 F100.0(Penetrate)
G01 X102.087861 Y1.037218 Z0.800000 F400.000000
G00 Z-0.500000

(End cutting path id: line3816)


(Start cutting path id: line3814)
(Change tool to Cylindrical cutter)

G00 Z-0.500000
G00 X100.992788 Y173.605190

G01 Z0.800000 F100.0(Penetrate)
G01 X100.992788 Y1.037218 Z0.800000 F400.000000
G00 Z-0.500000

(End cutting path id: line3814)


(Start cutting path id: line3812)
(Change tool to Cylindrical cutter)

G00 Z-0.500000
G00 X99.862392 Y173.605190

G01 Z0.800000 F100.0(Penetrate)
G01 X99.862392 Y1.037218 Z0.800000 F400.000000
G00 Z-0.500000

(End cutting path id: line3812)


(Start cutting path id: line3810)
(Change tool to Cylindrical cutter)

G00 Z-0.500000
G00 X98.767333 Y173.605190

G01 Z0.800000 F100.0(Penetrate)
G01 X98.767333 Y1.037218 Z0.800000 F400.000000
G00 Z-0.500000

(End cutting path id: line3810)


(Start cutting path id: line3808)
(Change tool to Cylindrical cutter)

G00 Z-0.500000
G00 X97.636935 Y173.605190

G01 Z0.800000 F100.0(Penetrate)
G01 X97.636935 Y1.037218 Z0.800000 F400.000000
G00 Z-0.500000

(End cutting path id: line3808)


(Start cutting path id: line3806)
(Change tool to Cylindrical cutter)

G00 Z-0.500000
G00 X96.541870 Y173.605190

G01 Z0.800000 F100.0(Penetrate)
G01 X96.541870 Y1.037218 Z0.800000 F400.000000
G00 Z-0.500000

(End cutting path id: line3806)


(Start cutting path id: line3804)
(Change tool to Cylindrical cutter)

G00 Z-0.500000
G00 X95.517451 Y173.605190

G01 Z0.800000 F100.0(Penetrate)
G01 X95.517451 Y1.037218 Z0.800000 F400.000000
G00 Z-0.500000

(End cutting path id: line3804)


(Start cutting path id: line3802)
(Change tool to Cylindrical cutter)

G00 Z-0.500000
G00 X94.422384 Y173.605190

G01 Z0.800000 F100.0(Penetrate)
G01 X94.422384 Y1.037218 Z0.800000 F400.000000
G00 Z-0.500000

(End cutting path id: line3802)


(Start cutting path id: line3800)
(Change tool to Cylindrical cutter)

G00 Z-0.500000
G00 X93.291988 Y173.605190

G01 Z0.800000 F100.0(Penetrate)
G01 X93.291988 Y1.037218 Z0.800000 F400.000000
G00 Z-0.500000

(End cutting path id: line3800)


(Start cutting path id: line3798)
(Change tool to Cylindrical cutter)

G00 Z-0.500000
G00 X92.196923 Y173.605190

G01 Z0.800000 F100.0(Penetrate)
G01 X92.196923 Y1.037218 Z0.800000 F400.000000
G00 Z-0.500000

(End cutting path id: line3798)


(Start cutting path id: line3796)
(Change tool to Cylindrical cutter)

G00 Z-0.500000
G00 X91.066525 Y173.605190

G01 Z0.800000 F100.0(Penetrate)
G01 X91.066525 Y1.037218 Z0.800000 F400.000000
G00 Z-0.500000

(End cutting path id: line3796)


(Start cutting path id: line3794)
(Change tool to Cylindrical cutter)

G00 Z-0.500000
G00 X89.971466 Y173.605190

G01 Z0.800000 F100.0(Penetrate)
G01 X89.971466 Y1.037218 Z0.800000 F400.000000
G00 Z-0.500000

(End cutting path id: line3794)


(Start cutting path id: line3792)
(Change tool to Cylindrical cutter)

G00 Z-0.500000
G00 X88.841070 Y173.605190

G01 Z0.800000 F100.0(Penetrate)
G01 X88.841070 Y1.037218 Z0.800000 F400.000000
G00 Z-0.500000

(End cutting path id: line3792)


(Start cutting path id: line3790)
(Change tool to Cylindrical cutter)

G00 Z-0.500000
G00 X87.745997 Y173.605190

G01 Z0.800000 F100.0(Penetrate)
G01 X87.745997 Y1.037218 Z0.800000 F400.000000
G00 Z-0.500000

(End cutting path id: line3790)


(Start cutting path id: line4044)
(Change tool to Cylindrical cutter)

G00 Z-0.500000
G00 X86.721578 Y173.605190

G01 Z0.800000 F100.0(Penetrate)
G01 X86.721578 Y1.037218 Z0.800000 F400.000000
G00 Z-0.500000

(End cutting path id: line4044)


(Start cutting path id: line4042)
(Change tool to Cylindrical cutter)

G00 Z-0.500000
G00 X85.626513 Y173.605190

G01 Z0.800000 F100.0(Penetrate)
G01 X85.626513 Y1.037218 Z0.800000 F400.000000
G00 Z-0.500000

(End cutting path id: line4042)


(Start cutting path id: line4040)
(Change tool to Cylindrical cutter)

G00 Z-0.500000
G00 X84.496115 Y173.605190

G01 Z0.800000 F100.0(Penetrate)
G01 X84.496115 Y1.037218 Z0.800000 F400.000000
G00 Z-0.500000

(End cutting path id: line4040)


(Start cutting path id: line4038)
(Change tool to Cylindrical cutter)

G00 Z-0.500000
G00 X83.401056 Y173.605190

G01 Z0.800000 F100.0(Penetrate)
G01 X83.401056 Y1.037218 Z0.800000 F400.000000
G00 Z-0.500000

(End cutting path id: line4038)


(Start cutting path id: line4036)
(Change tool to Cylindrical cutter)

G00 Z-0.500000
G00 X82.270660 Y173.605190

G01 Z0.800000 F100.0(Penetrate)
G01 X82.270660 Y1.037218 Z0.800000 F400.000000
G00 Z-0.500000

(End cutting path id: line4036)


(Start cutting path id: line4034)
(Change tool to Cylindrical cutter)

G00 Z-0.500000
G00 X81.175587 Y173.605190

G01 Z0.800000 F100.0(Penetrate)
G01 X81.175587 Y1.037218 Z0.800000 F400.000000
G00 Z-0.500000

(End cutting path id: line4034)


(Start cutting path id: line4032)
(Change tool to Cylindrical cutter)

G00 Z-0.500000
G00 X80.045196 Y173.605190

G01 Z0.800000 F100.0(Penetrate)
G01 X80.045196 Y1.037218 Z0.800000 F400.000000
G00 Z-0.500000

(End cutting path id: line4032)


(Start cutting path id: line4030)
(Change tool to Cylindrical cutter)

G00 Z-0.500000
G00 X78.950132 Y173.605190

G01 Z0.800000 F100.0(Penetrate)
G01 X78.950132 Y1.037218 Z0.800000 F400.000000
G00 Z-0.500000

(End cutting path id: line4030)


(Start cutting path id: line4028)
(Change tool to Cylindrical cutter)

G00 Z-0.500000
G00 X77.925710 Y173.605190

G01 Z0.800000 F100.0(Penetrate)
G01 X77.925710 Y1.037218 Z0.800000 F400.000000
G00 Z-0.500000

(End cutting path id: line4028)


(Start cutting path id: line4026)
(Change tool to Cylindrical cutter)

G00 Z-0.500000
G00 X76.830646 Y173.605190

G01 Z0.800000 F100.0(Penetrate)
G01 X76.830646 Y1.037218 Z0.800000 F400.000000
G00 Z-0.500000

(End cutting path id: line4026)


(Start cutting path id: line4024)
(Change tool to Cylindrical cutter)

G00 Z-0.500000
G00 X75.700241 Y173.605190

G01 Z0.800000 F100.0(Penetrate)
G01 X75.700241 Y1.037218 Z0.800000 F400.000000
G00 Z-0.500000

(End cutting path id: line4024)


(Start cutting path id: line4022)
(Change tool to Cylindrical cutter)

G00 Z-0.500000
G00 X74.605182 Y173.605190

G01 Z0.800000 F100.0(Penetrate)
G01 X74.605182 Y1.037218 Z0.800000 F400.000000
G00 Z-0.500000

(End cutting path id: line4022)


(Start cutting path id: line4020)
(Change tool to Cylindrical cutter)

G00 Z-0.500000
G00 X73.474786 Y173.605190

G01 Z0.800000 F100.0(Penetrate)
G01 X73.474786 Y1.037218 Z0.800000 F400.000000
G00 Z-0.500000

(End cutting path id: line4020)


(Start cutting path id: line4018)
(Change tool to Cylindrical cutter)

G00 Z-0.500000
G00 X72.379719 Y173.605190

G01 Z0.800000 F100.0(Penetrate)
G01 X72.379719 Y1.037218 Z0.800000 F400.000000
G00 Z-0.500000

(End cutting path id: line4018)


(Start cutting path id: line4016)
(Change tool to Cylindrical cutter)

G00 Z-0.500000
G00 X71.249329 Y173.605190

G01 Z0.800000 F100.0(Penetrate)
G01 X71.249329 Y1.037218 Z0.800000 F400.000000
G00 Z-0.500000

(End cutting path id: line4016)


(Start cutting path id: line4014)
(Change tool to Cylindrical cutter)

G00 Z-0.500000
G00 X70.154264 Y173.605190

G01 Z0.800000 F100.0(Penetrate)
G01 X70.154264 Y1.037218 Z0.800000 F400.000000
G00 Z-0.500000

(End cutting path id: line4014)


(Start cutting path id: line4012)
(Change tool to Cylindrical cutter)

G00 Z-0.500000
G00 X69.094520 Y173.605190

G01 Z0.800000 F100.0(Penetrate)
G01 X69.094520 Y1.037218 Z0.800000 F400.000000
G00 Z-0.500000

(End cutting path id: line4012)


(Start cutting path id: line4010)
(Change tool to Cylindrical cutter)

G00 Z-0.500000
G00 X67.999447 Y173.605190

G01 Z0.800000 F100.0(Penetrate)
G01 X67.999447 Y1.037218 Z0.800000 F400.000000
G00 Z-0.500000

(End cutting path id: line4010)


(Start cutting path id: line4008)
(Change tool to Cylindrical cutter)

G00 Z-0.500000
G00 X66.869056 Y173.605190

G01 Z0.800000 F100.0(Penetrate)
G01 X66.869056 Y1.037218 Z0.800000 F400.000000
G00 Z-0.500000

(End cutting path id: line4008)


(Start cutting path id: line4006)
(Change tool to Cylindrical cutter)

G00 Z-0.500000
G00 X65.773992 Y173.605190

G01 Z0.800000 F100.0(Penetrate)
G01 X65.773992 Y1.037218 Z0.800000 F400.000000
G00 Z-0.500000

(End cutting path id: line4006)


(Start cutting path id: line4004)
(Change tool to Cylindrical cutter)

G00 Z-0.500000
G00 X64.643599 Y173.605190

G01 Z0.800000 F100.0(Penetrate)
G01 X64.643599 Y1.037218 Z0.800000 F400.000000
G00 Z-0.500000

(End cutting path id: line4004)


(Start cutting path id: line4002)
(Change tool to Cylindrical cutter)

G00 Z-0.500000
G00 X63.548534 Y173.605190

G01 Z0.800000 F100.0(Penetrate)
G01 X63.548534 Y1.037218 Z0.800000 F400.000000
G00 Z-0.500000

(End cutting path id: line4002)


(Start cutting path id: line4000)
(Change tool to Cylindrical cutter)

G00 Z-0.500000
G00 X62.418130 Y173.605190

G01 Z0.800000 F100.0(Penetrate)
G01 X62.418130 Y1.037218 Z0.800000 F400.000000
G00 Z-0.500000

(End cutting path id: line4000)


(Start cutting path id: line3998)
(Change tool to Cylindrical cutter)

G00 Z-0.500000
G00 X61.323071 Y173.605190

G01 Z0.800000 F100.0(Penetrate)
G01 X61.323071 Y1.037218 Z0.800000 F400.000000
G00 Z-0.500000

(End cutting path id: line3998)


(Start cutting path id: line3996)
(Change tool to Cylindrical cutter)

G00 Z-0.500000
G00 X60.298652 Y173.605190

G01 Z0.800000 F100.0(Penetrate)
G01 X60.298652 Y1.037218 Z0.800000 F400.000000
G00 Z-0.500000

(End cutting path id: line3996)


(Start cutting path id: line3994)
(Change tool to Cylindrical cutter)

G00 Z-0.500000
G00 X59.203579 Y173.605190

G01 Z0.800000 F100.0(Penetrate)
G01 X59.203579 Y1.037218 Z0.800000 F400.000000
G00 Z-0.500000

(End cutting path id: line3994)


(Start cutting path id: line3992)
(Change tool to Cylindrical cutter)

G00 Z-0.500000
G00 X58.073197 Y173.605190

G01 Z0.800000 F100.0(Penetrate)
G01 X58.073197 Y1.037218 Z0.800000 F400.000000
G00 Z-0.500000

(End cutting path id: line3992)


(Start cutting path id: line3990)
(Change tool to Cylindrical cutter)

G00 Z-0.500000
G00 X56.978124 Y173.605190

G01 Z0.800000 F100.0(Penetrate)
G01 X56.978124 Y1.037218 Z0.800000 F400.000000
G00 Z-0.500000

(End cutting path id: line3990)


(Start cutting path id: line3988)
(Change tool to Cylindrical cutter)

G00 Z-0.500000
G00 X55.847731 Y173.605190

G01 Z0.800000 F100.0(Penetrate)
G01 X55.847731 Y1.037218 Z0.800000 F400.000000
G00 Z-0.500000

(End cutting path id: line3988)


(Start cutting path id: line3986)
(Change tool to Cylindrical cutter)

G00 Z-0.500000
G00 X54.752661 Y173.605190

G01 Z0.800000 F100.0(Penetrate)
G01 X54.752661 Y1.037218 Z0.800000 F400.000000
G00 Z-0.500000

(End cutting path id: line3986)


(Start cutting path id: line3984)
(Change tool to Cylindrical cutter)

G00 Z-0.500000
G00 X53.622268 Y173.605190

G01 Z0.800000 F100.0(Penetrate)
G01 X53.622268 Y1.037218 Z0.800000 F400.000000
G00 Z-0.500000

(End cutting path id: line3984)


(Start cutting path id: line3982)
(Change tool to Cylindrical cutter)

G00 Z-0.500000
G00 X52.527203 Y173.605190

G01 Z0.800000 F100.0(Penetrate)
G01 X52.527203 Y1.037218 Z0.800000 F400.000000
G00 Z-0.500000

(End cutting path id: line3982)


(Start cutting path id: line3980)
(Change tool to Cylindrical cutter)

G00 Z-0.500000
G00 X51.326164 Y173.605190

G01 Z0.800000 F100.0(Penetrate)
G01 X51.326164 Y1.037218 Z0.800000 F400.000000
G00 Z-0.500000

(End cutting path id: line3980)


(Start cutting path id: line3978)
(Change tool to Cylindrical cutter)

G00 Z-0.500000
G00 X50.231094 Y173.605190

G01 Z0.800000 F100.0(Penetrate)
G01 X50.231094 Y1.037218 Z0.800000 F400.000000
G00 Z-0.500000

(End cutting path id: line3978)


(Start cutting path id: line3976)
(Change tool to Cylindrical cutter)

G00 Z-0.500000
G00 X49.100701 Y173.605190

G01 Z0.800000 F100.0(Penetrate)
G01 X49.100701 Y1.037218 Z0.800000 F400.000000
G00 Z-0.500000

(End cutting path id: line3976)


(Start cutting path id: line3974)
(Change tool to Cylindrical cutter)

G00 Z-0.500000
G00 X48.005636 Y173.605190

G01 Z0.800000 F100.0(Penetrate)
G01 X48.005636 Y1.037218 Z0.800000 F400.000000
G00 Z-0.500000

(End cutting path id: line3974)


(Start cutting path id: line3972)
(Change tool to Cylindrical cutter)

G00 Z-0.500000
G00 X46.875240 Y173.605190

G01 Z0.800000 F100.0(Penetrate)
G01 X46.875240 Y1.037218 Z0.800000 F400.000000
G00 Z-0.500000

(End cutting path id: line3972)


(Start cutting path id: line3970)
(Change tool to Cylindrical cutter)

G00 Z-0.500000
G00 X45.780173 Y173.605190

G01 Z0.800000 F100.0(Penetrate)
G01 X45.780173 Y1.037218 Z0.800000 F400.000000
G00 Z-0.500000

(End cutting path id: line3970)


(Start cutting path id: line3968)
(Change tool to Cylindrical cutter)

G00 Z-0.500000
G00 X44.649777 Y173.605190

G01 Z0.800000 F100.0(Penetrate)
G01 X44.649777 Y1.037218 Z0.800000 F400.000000
G00 Z-0.500000

(End cutting path id: line3968)


(Start cutting path id: line3966)
(Change tool to Cylindrical cutter)

G00 Z-0.500000
G00 X43.554712 Y173.605190

G01 Z0.800000 F100.0(Penetrate)
G01 X43.554712 Y1.037218 Z0.800000 F400.000000
G00 Z-0.500000

(End cutting path id: line3966)


(Start cutting path id: line3964)
(Change tool to Cylindrical cutter)

G00 Z-0.500000
G00 X42.530294 Y173.605190

G01 Z0.800000 F100.0(Penetrate)
G01 X42.530294 Y1.037218 Z0.800000 F400.000000
G00 Z-0.500000

(End cutting path id: line3964)


(Start cutting path id: line3962)
(Change tool to Cylindrical cutter)

G00 Z-0.500000
G00 X41.435229 Y173.605190

G01 Z0.800000 F100.0(Penetrate)
G01 X41.435229 Y1.037218 Z0.800000 F400.000000
G00 Z-0.500000

(End cutting path id: line3962)


(Start cutting path id: line3960)
(Change tool to Cylindrical cutter)

G00 Z-0.500000
G00 X40.304830 Y173.605190

G01 Z0.800000 F100.0(Penetrate)
G01 X40.304830 Y1.037218 Z0.800000 F400.000000
G00 Z-0.500000

(End cutting path id: line3960)


(Start cutting path id: line3958)
(Change tool to Cylindrical cutter)

G00 Z-0.500000
G00 X39.209766 Y173.605190

G01 Z0.800000 F100.0(Penetrate)
G01 X39.209766 Y1.037218 Z0.800000 F400.000000
G00 Z-0.500000

(End cutting path id: line3958)


(Start cutting path id: line3956)
(Change tool to Cylindrical cutter)

G00 Z-0.500000
G00 X38.079370 Y173.605190

G01 Z0.800000 F100.0(Penetrate)
G01 X38.079370 Y1.037218 Z0.800000 F400.000000
G00 Z-0.500000

(End cutting path id: line3956)


(Start cutting path id: line3954)
(Change tool to Cylindrical cutter)

G00 Z-0.500000
G00 X36.984302 Y173.605190

G01 Z0.800000 F100.0(Penetrate)
G01 X36.984302 Y1.037218 Z0.800000 F400.000000
G00 Z-0.500000

(End cutting path id: line3954)


(Start cutting path id: line3952)
(Change tool to Cylindrical cutter)

G00 Z-0.500000
G00 X35.853912 Y173.605190

G01 Z0.800000 F100.0(Penetrate)
G01 X35.853912 Y1.037218 Z0.800000 F400.000000
G00 Z-0.500000

(End cutting path id: line3952)


(Start cutting path id: line3950)
(Change tool to Cylindrical cutter)

G00 Z-0.500000
G00 X34.758842 Y173.605190

G01 Z0.800000 F100.0(Penetrate)
G01 X34.758842 Y1.037218 Z0.800000 F400.000000
G00 Z-0.500000

(End cutting path id: line3950)


(Start cutting path id: line3948)
(Change tool to Cylindrical cutter)

G00 Z-0.500000
G00 X33.699097 Y173.605190

G01 Z0.800000 F100.0(Penetrate)
G01 X33.699097 Y1.037218 Z0.800000 F400.000000
G00 Z-0.500000

(End cutting path id: line3948)


(Start cutting path id: line3946)
(Change tool to Cylindrical cutter)

G00 Z-0.500000
G00 X32.604033 Y173.605190

G01 Z0.800000 F100.0(Penetrate)
G01 X32.604033 Y1.037218 Z0.800000 F400.000000
G00 Z-0.500000

(End cutting path id: line3946)


(Start cutting path id: line3944)
(Change tool to Cylindrical cutter)

G00 Z-0.500000
G00 X31.473643 Y173.605190

G01 Z0.800000 F100.0(Penetrate)
G01 X31.473643 Y1.037218 Z0.800000 F400.000000
G00 Z-0.500000

(End cutting path id: line3944)


(Start cutting path id: line3942)
(Change tool to Cylindrical cutter)

G00 Z-0.500000
G00 X30.378570 Y173.605190

G01 Z0.800000 F100.0(Penetrate)
G01 X30.378570 Y1.037218 Z0.800000 F400.000000
G00 Z-0.500000

(End cutting path id: line3942)


(Start cutting path id: line3940)
(Change tool to Cylindrical cutter)

G00 Z-0.500000
G00 X29.248179 Y173.605190

G01 Z0.800000 F100.0(Penetrate)
G01 X29.248179 Y1.037218 Z0.800000 F400.000000
G00 Z-0.500000

(End cutting path id: line3940)


(Start cutting path id: line3938)
(Change tool to Cylindrical cutter)

G00 Z-0.500000
G00 X28.153114 Y173.605190

G01 Z0.800000 F100.0(Penetrate)
G01 X28.153114 Y1.037218 Z0.800000 F400.000000
G00 Z-0.500000

(End cutting path id: line3938)


(Start cutting path id: line3936)
(Change tool to Cylindrical cutter)

G00 Z-0.500000
G00 X27.022721 Y173.605190

G01 Z0.800000 F100.0(Penetrate)
G01 X27.022721 Y1.037218 Z0.800000 F400.000000
G00 Z-0.500000

(End cutting path id: line3936)


(Start cutting path id: line3934)
(Change tool to Cylindrical cutter)

G00 Z-0.500000
G00 X25.927651 Y173.605190

G01 Z0.800000 F100.0(Penetrate)
G01 X25.927651 Y1.037218 Z0.800000 F400.000000
G00 Z-0.500000

(End cutting path id: line3934)


(Start cutting path id: line3932)
(Change tool to Cylindrical cutter)

G00 Z-0.500000
G00 X24.903235 Y173.605190

G01 Z0.800000 F100.0(Penetrate)
G01 X24.903235 Y1.037218 Z0.800000 F400.000000
G00 Z-0.500000

(End cutting path id: line3932)


(Start cutting path id: line3930)
(Change tool to Cylindrical cutter)

G00 Z-0.500000
G00 X23.808168 Y173.605190

G01 Z0.800000 F100.0(Penetrate)
G01 X23.808168 Y1.037218 Z0.800000 F400.000000
G00 Z-0.500000

(End cutting path id: line3930)


(Start cutting path id: line3928)
(Change tool to Cylindrical cutter)

G00 Z-0.500000
G00 X22.677773 Y173.605190

G01 Z0.800000 F100.0(Penetrate)
G01 X22.677773 Y1.037218 Z0.800000 F400.000000
G00 Z-0.500000

(End cutting path id: line3928)


(Start cutting path id: line3926)
(Change tool to Cylindrical cutter)

G00 Z-0.500000
G00 X21.582705 Y173.605190

G01 Z0.800000 F100.0(Penetrate)
G01 X21.582705 Y1.037218 Z0.800000 F400.000000
G00 Z-0.500000

(End cutting path id: line3926)


(Start cutting path id: line3924)
(Change tool to Cylindrical cutter)

G00 Z-0.500000
G00 X20.452314 Y173.605190

G01 Z0.800000 F100.0(Penetrate)
G01 X20.452314 Y1.037218 Z0.800000 F400.000000
G00 Z-0.500000

(End cutting path id: line3924)


(Start cutting path id: line3922)
(Change tool to Cylindrical cutter)

G00 Z-0.500000
G00 X19.357244 Y173.605190

G01 Z0.800000 F100.0(Penetrate)
G01 X19.357244 Y1.037218 Z0.800000 F400.000000
G00 Z-0.500000

(End cutting path id: line3922)


(Start cutting path id: line3920)
(Change tool to Cylindrical cutter)

G00 Z-0.500000
G00 X18.226853 Y173.605190

G01 Z0.800000 F100.0(Penetrate)
G01 X18.226853 Y1.037218 Z0.800000 F400.000000
G00 Z-0.500000

(End cutting path id: line3920)


(Start cutting path id: line3918)
(Change tool to Cylindrical cutter)

G00 Z-0.500000
G00 X17.131786 Y173.605190

G01 Z0.800000 F100.0(Penetrate)
G01 X17.131786 Y1.037218 Z0.800000 F400.000000
G00 Z-0.500000

(End cutting path id: line3918)


(Start cutting path id: line4068)
(Change tool to Cylindrical cutter)

G00 Z-0.500000
G00 X15.824769 Y173.605190

G01 Z0.800000 F100.0(Penetrate)
G01 X15.824769 Y1.037218 Z0.800000 F400.000000
G00 Z-0.500000

(End cutting path id: line4068)


(Start cutting path id: line4066)
(Change tool to Cylindrical cutter)

G00 Z-0.500000
G00 X14.729701 Y173.605190

G01 Z0.800000 F100.0(Penetrate)
G01 X14.729701 Y1.037218 Z0.800000 F400.000000
G00 Z-0.500000

(End cutting path id: line4066)


(Start cutting path id: line4064)
(Change tool to Cylindrical cutter)

G00 Z-0.500000
G00 X13.599307 Y173.605190

G01 Z0.800000 F100.0(Penetrate)
G01 X13.599307 Y1.037218 Z0.800000 F400.000000
G00 Z-0.500000

(End cutting path id: line4064)


(Start cutting path id: line4062)
(Change tool to Cylindrical cutter)

G00 Z-0.500000
G00 X12.504239 Y173.605190

G01 Z0.800000 F100.0(Penetrate)
G01 X12.504239 Y1.037218 Z0.800000 F400.000000
G00 Z-0.500000

(End cutting path id: line4062)


(Start cutting path id: line4060)
(Change tool to Cylindrical cutter)

G00 Z-0.500000
G00 X11.479821 Y173.605190

G01 Z0.800000 F100.0(Penetrate)
G01 X11.479821 Y1.037218 Z0.800000 F400.000000
G00 Z-0.500000

(End cutting path id: line4060)


(Start cutting path id: line4058)
(Change tool to Cylindrical cutter)

G00 Z-0.500000
G00 X10.384754 Y173.605190

G01 Z0.800000 F100.0(Penetrate)
G01 X10.384754 Y1.037218 Z0.800000 F400.000000
G00 Z-0.500000

(End cutting path id: line4058)


(Start cutting path id: line4056)
(Change tool to Cylindrical cutter)

G00 Z-0.500000
G00 X9.254361 Y173.605190

G01 Z0.800000 F100.0(Penetrate)
G01 X9.254361 Y1.037218 Z0.800000 F400.000000
G00 Z-0.500000

(End cutting path id: line4056)


(Start cutting path id: line4054)
(Change tool to Cylindrical cutter)

G00 Z-0.500000
G00 X8.159293 Y173.605190

G01 Z0.800000 F100.0(Penetrate)
G01 X8.159293 Y1.037218 Z0.800000 F400.000000
G00 Z-0.500000

(End cutting path id: line4054)


(Start cutting path id: line4052)
(Change tool to Cylindrical cutter)

G00 Z-0.500000
G00 X7.028901 Y173.605190

G01 Z0.800000 F100.0(Penetrate)
G01 X7.028901 Y1.037218 Z0.800000 F400.000000
G00 Z-0.500000

(End cutting path id: line4052)


(Start cutting path id: line4050)
(Change tool to Cylindrical cutter)

G00 Z-0.500000
G00 X5.933833 Y173.605190

G01 Z0.800000 F100.0(Penetrate)
G01 X5.933833 Y1.037218 Z0.800000 F400.000000
G00 Z-0.500000

(End cutting path id: line4050)


(Start cutting path id: line4048)
(Change tool to Cylindrical cutter)

G00 Z-0.500000
G00 X4.803440 Y173.605190

G01 Z0.800000 F100.0(Penetrate)
G01 X4.803440 Y1.037218 Z0.800000 F400.000000
G00 Z-0.500000

(End cutting path id: line4048)


(Start cutting path id: line4046)
(Change tool to Cylindrical cutter)

G00 Z-0.500000
G00 X3.708372 Y173.605190

G01 Z0.800000 F100.0(Penetrate)
G01 X3.708372 Y1.037218 Z0.800000 F400.000000
G00 Z-0.500000

(End cutting path id: line4046)


(Start cutting path id: line4072)
(Change tool to Cylindrical cutter)

G00 Z-0.500000
G00 X2.542655 Y173.605190

G01 Z0.800000 F100.0(Penetrate)
G01 X2.542655 Y1.037218 Z0.800000 F400.000000
G00 Z-0.500000

(End cutting path id: line4072)


(Start cutting path id: line4070)
(Change tool to Cylindrical cutter)

G00 Z-0.500000
G00 X1.447587 Y173.605190

G01 Z0.800000 F100.0(Penetrate)
G01 X1.447587 Y1.037218 Z0.800000 F400.000000
G00 Z-0.500000

(End cutting path id: line4070)


(Footer)
M5
G00 X0.0000 Y0.0000
M2
(Using default footer. To add your own footer create file "footer" in the output dir.)
(end)
%